X: 1
T: Denis Murphy's Polka
C: Trad
R: Polka
L: 1/8
M: 2/4
K: D
Z: ABC transcription by Verge Roller
|: "D" f/g/f/e/ d/e/d/B/ | "D" AD FA | "Em" GE e>d | "A" cB BA |
"D" f/g/f/e/ d/e/d/B/ | "D" AD FA | "Em" GE "A" e>f | [1 "D" ed de :| [2 "D" ed dB |]
|: "D" Af f/e/f | "A7" Ag g/f/g | "D" Af f/e/f | "Em" e/f/e/d/ "A" BA |
"D" Af f/e/f | "Em" Ag "A" g/f/g/a/ | "G" ba "Em" gc | [1 "D" ed dB :| [2 "D" ed de |]
r: 32
